priv/static/images/tools/sql.svg

<svg
  width="128"
  height="128"
  viewBox="0 0 128 128"
  fill="none"
  xmlns="http://www.w3.org/2000/svg"
>
  <path
    d="M93.8092 92.112C94.5942 85.579 94.3592 84.62 99.2252 85.679L100.46 85.787C104.202 85.957 109.097 85.185 111.973 83.849C118.164 80.976 121.834 76.181 115.731 77.44C101.807 80.313 100.85 75.598 100.85 75.598C115.553 53.783 121.699 26.09 116.393 19.311C101.923 0.821976 76.8762 9.56498 76.4572 9.79098L76.3232 9.81598C73.5722 9.24498 70.4932 8.90397 67.0342 8.84797C60.7332 8.74397 55.9522 10.5 52.3252 13.25C52.3252 13.25 7.64224 -5.15903 9.72124 36.401C10.1632 45.242 22.3932 103.299 36.9812 85.763C42.3132 79.351 47.4652 73.929 47.4652 73.929C50.0232 75.628 53.0872 76.496 56.2992 76.184L56.5482 75.972C56.4702 76.768 56.5042 77.547 56.6472 78.469C52.8902 82.668 53.9942 83.405 46.4812 84.951C38.8792 86.517 43.3452 89.306 46.2602 90.035C49.7952 90.919 57.9722 92.171 63.4982 84.437L63.2782 85.319C64.7522 86.499 64.6532 93.796 64.8612 99.009C65.0702 104.223 65.4192 109.088 66.4822 111.957C67.5452 114.825 68.7992 122.213 78.6732 120.097C86.9252 118.333 93.2342 115.788 93.8092 92.112Z"
    fill="black"
  />
  <path
    d="M75.458 125.256C71.091 125.256 68.247 123.567 66.52 121.936C63.913 119.476 62.879 116.307 62.261 114.414L61.994 113.624C60.75 110.266 60.328 105.431 60.078 99.2051C60.04 98.2701 60.014 97.3071 59.985 96.2861C59.964 95.5391 59.938 94.6021 59.9 93.6221C58.3267 94.3722 56.6567 94.8999 54.938 95.1901C51.859 95.7161 48.549 95.5461 45.098 94.6831C42.663 94.0741 40.133 92.8121 38.691 90.8631C34.488 94.5441 30.479 94.0451 28.295 93.3161C24.442 92.0311 20.994 88.4201 17.753 82.2791C15.444 77.9041 13.211 72.2041 11.115 65.3361C7.46502 53.3761 5.14602 40.7791 4.94002 36.6431C4.29202 23.6981 7.77701 14.4401 15.296 9.12906C27.157 0.751057 45.128 5.67806 51.68 7.91506C56.082 5.26206 61.261 3.97106 67.113 4.06406C70.256 4.11506 73.249 4.39106 76.029 4.88706C78.929 3.97506 84.657 2.66606 91.214 2.74806C103.295 2.89206 113.306 7.60006 120.163 16.3631C125.057 22.6151 122.637 35.7441 120.76 43.0141C118.118 53.2401 113.489 64.1161 107.803 73.5841C109.347 73.5951 111.584 73.4101 114.764 72.7531C121.038 71.4581 122.873 74.8221 123.371 76.3281C125.366 82.3701 116.694 86.9361 113.989 88.1921C110.523 89.8011 104.872 90.7811 100.244 90.5691L100.042 90.5561L98.826 90.4491L98.706 91.4631L98.59 92.4541C98.279 104.453 96.565 112.052 93.038 117.073C89.341 122.337 84.203 123.812 79.677 124.782C78.133 125.112 76.73 125.256 75.458 125.256ZM66.268 81.5851C69.087 83.8411 69.334 88.0861 69.555 96.0191C69.583 97.0091 69.609 97.9461 69.644 98.8211C69.75 101.471 69.999 107.676 70.971 110.298C71.108 110.669 71.231 111.045 71.361 111.444C72.444 114.76 72.987 116.423 77.67 115.422C81.601 114.579 83.622 113.823 85.204 111.571C87.503 108.297 88.789 101.711 89.025 91.9961L93.808 92.1121L89.058 91.5421L89.198 90.3561C89.653 86.4461 89.981 83.6221 92.594 81.7541C94.691 80.2561 97.08 80.4011 98.983 80.7441C96.892 79.1641 96.314 77.3111 96.16 76.5511L95.761 74.5861L96.882 72.9231C103.339 63.3431 108.663 51.5691 111.491 40.6191C114.397 29.3681 113.511 23.3931 112.625 22.2631C100.896 7.27606 80.557 13.4641 78.433 14.1661L78.074 14.3601L76.274 14.6951L75.352 14.5041C72.81 13.9761 69.986 13.6841 66.959 13.6351C62.203 13.5551 58.366 14.6791 55.22 17.0661L53.037 18.7211L50.504 17.6781C45.092 15.4651 29.196 11.0161 20.808 16.9571C16.152 20.2551 14.031 26.7171 14.503 36.1641C14.659 39.2831 16.778 51.0901 20.274 62.5411C25.105 78.3661 29.495 83.6231 31.328 84.2341C31.648 84.3421 32.478 83.6971 33.304 82.7051C36.748 78.5764 40.3143 74.5513 43.998 70.6351L46.768 67.7201L50.117 69.9451C51.467 70.8421 52.956 71.3511 54.485 71.4471L62.472 64.6351L61.315 76.4431C61.289 76.7081 61.276 77.0691 61.38 77.7391L61.728 79.9771L60.218 81.6651L60.044 81.8611L64.432 83.8861L66.268 81.5851Z"
    fill="black"
  />
  <path
    d="M115.731 77.4399C101.806 80.3129 100.849 75.5979 100.849 75.5979C115.552 53.7819 121.698 26.0879 116.394 19.3109C101.924 0.822936 76.8752 9.56594 76.4572 9.79294L76.3222 9.81694C73.5712 9.24594 70.4922 8.90594 67.0312 8.84994C60.7302 8.74694 55.9512 10.5019 52.3242 13.2519C52.3242 13.2519 7.64024 -5.15606 9.71824 36.4029C10.1602 45.2449 22.3902 103.302 36.9782 85.7659C42.3102 79.3539 47.4612 73.9319 47.4612 73.9319C50.0202 75.6309 53.0832 76.4989 56.2942 76.1869L56.5442 75.9749C56.4662 76.7709 56.5022 77.5499 56.6442 78.4719C52.8862 82.6709 53.9902 83.4079 46.4772 84.9539C38.8752 86.5199 43.3412 89.3089 46.2572 90.0379C49.7912 90.9219 57.9692 92.1739 63.4942 84.4399L63.2732 85.3219C64.7462 86.5019 65.7802 92.9939 65.6072 98.8789C65.4332 104.764 65.3172 108.805 66.4782 111.961C67.6382 115.117 68.7942 122.217 78.6702 120.101C86.9222 118.333 91.1982 113.75 91.7942 106.106C92.2162 100.671 93.1712 101.475 93.2322 96.6159L93.9992 94.3159C94.8832 86.9489 94.1392 84.5729 99.2242 85.6779L100.459 85.7859C104.201 85.9559 109.098 85.1839 111.973 83.8479C118.163 80.9769 121.834 76.1809 115.731 77.4399Z"
    fill="#336791"
  />
  <path
    d="M75.957 122.307C67.725 122.307 65.117 115.788 64.05 113.122C62.488 109.215 62.151 94.0531 62.499 81.6191C62.5041 81.4094 62.5507 81.2028 62.6361 81.0112C62.7215 80.8196 62.8439 80.6468 62.9963 80.5027C63.1488 80.3587 63.3282 80.2462 63.5243 80.1718C63.7204 80.0973 63.9293 80.0624 64.139 80.0691C64.3484 80.0748 64.5547 80.1217 64.7459 80.2072C64.9372 80.2927 65.1098 80.415 65.2537 80.5673C65.3977 80.7195 65.5102 80.8986 65.5849 81.0944C65.6596 81.2901 65.695 81.4987 65.689 81.7081C65.288 96.0491 65.857 109.045 67.013 111.937C68.817 116.446 71.553 120.39 79.288 118.733C86.631 117.158 89.381 114.374 90.606 107.273C91.546 101.824 93.405 86.3221 93.634 83.2631C93.6493 83.0541 93.7057 82.8501 93.8 82.6629C93.8943 82.4757 94.0246 82.3089 94.1834 82.1722C94.3423 82.0354 94.5266 81.9314 94.7257 81.866C94.9249 81.8006 95.135 81.7751 95.344 81.7911C95.7658 81.8231 96.1577 82.0211 96.4336 82.3417C96.7096 82.6623 96.8471 83.0792 96.816 83.5011C96.577 86.6861 94.727 102.158 93.751 107.816C92.305 116.203 88.566 120.007 79.957 121.853C78.494 122.166 77.165 122.306 75.957 122.307ZM31.321 90.4661C30.6014 90.4636 29.887 90.3455 29.205 90.1161C23.858 88.3321 18.765 79.6241 14.067 64.2311C10.491 52.5141 8.22496 40.2841 8.02596 36.3091C7.43696 24.5251 10.471 16.1881 17.046 11.5311C30.053 2.3151 51.934 11.0911 52.859 11.4691C53.2508 11.6292 53.563 11.9383 53.727 12.3286C53.8909 12.7188 53.893 13.1582 53.733 13.5501C53.5729 13.942 53.2637 14.2542 52.8735 14.4181C52.4832 14.582 52.0438 14.5842 51.652 14.4241C51.441 14.3381 30.459 5.9321 18.884 14.1391C13.262 18.1251 10.681 25.5311 11.212 36.1501C11.379 39.4991 13.496 51.4351 17.118 63.2991C21.312 77.0411 26.085 85.7121 30.214 87.0891C30.862 87.3051 32.834 87.9621 35.653 84.5721C38.9404 80.6239 42.3511 76.78 45.88 73.0461C46.1752 72.7516 46.5741 72.5843 46.9911 72.5802C47.4081 72.576 47.8102 72.7352 48.1113 73.0238C48.4124 73.3124 48.5886 73.7073 48.6022 74.1241C48.6158 74.541 48.4657 74.9466 48.184 75.2541C48.136 75.3041 43.337 80.3211 38.107 86.6131C35.63 89.5921 33.256 90.4661 31.321 90.4661ZM100.75 77.0211C100.461 77.0207 100.177 76.9417 99.9291 76.7925C99.6813 76.6434 99.4786 76.4296 99.3428 76.1742C99.207 75.9188 99.1432 75.6313 99.1582 75.3424C99.1732 75.0535 99.2665 74.7741 99.428 74.5341C114.291 52.4791 119.508 25.8301 115.04 20.1201C109.416 12.9341 101.475 9.1811 91.436 8.9641C84.003 8.8041 78.095 10.7021 77.129 11.0331L76.886 11.1321C75.915 11.4371 75.17 10.9051 74.889 10.2831C74.7287 9.92673 74.7045 9.52405 74.8207 9.15102C74.9369 8.77798 75.1857 8.46037 75.52 8.2581C75.566 8.2311 75.712 8.1691 75.949 8.0821L75.928 8.0881L75.949 8.0811C77.59 7.4801 83.588 5.6811 91.017 5.7661C102.125 5.8841 111.301 10.1671 117.551 18.1541C120.508 21.9331 120.515 30.6391 117.57 42.0411C114.568 53.6661 108.919 66.1591 102.073 76.3181C101.767 76.7751 101.263 77.0211 100.75 77.0211ZM101.51 87.2311C98.972 87.2311 96.697 86.8731 95.335 86.0571C93.935 85.2181 93.668 84.0781 93.633 83.4731C93.251 76.7631 96.953 75.5951 98.841 75.0621C98.578 74.6641 98.204 74.1961 97.817 73.7131C96.716 72.3371 95.208 70.4531 94.046 67.6351C93.864 67.1951 93.294 66.1721 92.634 64.9871C89.055 58.5691 81.608 45.2141 86.392 38.3751C88.606 35.2101 93.015 33.9641 99.511 34.6591C97.6 28.8371 88.5 10.6251 66.907 10.2711C60.413 10.1631 55.087 12.1601 51.085 16.2011C42.125 25.2501 42.449 41.6231 42.454 41.7871C42.4595 41.9966 42.4237 42.205 42.3486 42.4007C42.2736 42.5963 42.1607 42.7752 42.0165 42.9272C41.8723 43.0792 41.6995 43.2014 41.5081 43.2866C41.3167 43.3719 41.1104 43.4186 40.901 43.4241C40.6915 43.4296 40.483 43.3938 40.2874 43.3188C40.0918 43.2437 39.9128 43.1308 39.7608 42.9866C39.6088 42.8424 39.4867 42.6697 39.4014 42.4783C39.3162 42.2869 39.2695 42.0806 39.264 41.8711C39.244 41.1441 38.91 23.9621 48.818 13.9551C53.455 9.2721 59.559 6.9601 66.96 7.0811C80.774 7.3081 89.666 14.3311 94.692 20.1821C100.171 26.5591 102.857 33.5931 103.078 35.9411C103.243 37.6871 101.99 38.0361 101.737 38.0881L101.161 38.1011C94.786 37.0801 90.696 37.7891 89.005 40.2051C85.366 45.4061 92.411 58.0391 95.419 63.4341C96.187 64.8101 96.741 65.8051 96.995 66.4191C97.983 68.8151 99.272 70.4251 100.307 71.7191C101.218 72.8571 102.007 73.8441 102.289 75.0021C102.42 75.2321 104.279 77.9821 115.31 75.7051C118.075 75.1351 119.733 75.6221 120.24 77.1551C121.237 80.1701 115.643 83.6871 112.546 85.1251C109.771 86.4151 105.342 87.2311 101.51 87.2311ZM96.814 83.2101C97.164 83.5631 98.915 84.1721 102.541 84.0161C105.765 83.8781 109.165 83.1771 111.205 82.2301C113.814 81.0181 115.556 79.6631 116.458 78.7381L115.958 78.8301C108.905 80.2861 103.916 80.0921 101.13 78.2531C100.943 78.1294 100.763 77.9955 100.59 77.8521C100.288 77.9711 100.009 78.0491 99.81 78.1051C98.23 78.5481 96.596 79.0071 96.814 83.2101ZM51.252 92.1251C49.5 92.1251 47.656 91.8861 45.773 91.4151C43.822 90.9271 40.533 89.4581 40.583 87.0451C40.64 84.3381 44.577 83.5261 46.059 83.2211C51.413 82.1181 51.762 81.6761 53.435 79.5511C53.923 78.9321 54.53 78.1611 55.358 77.2371C56.587 75.8611 57.93 75.1641 59.35 75.1641C60.339 75.1641 61.15 75.4991 61.686 75.7221C63.394 76.4301 64.819 78.1421 65.405 80.1891C65.934 82.0361 65.681 83.8141 64.695 85.1951C61.458 89.7281 56.809 92.1251 51.252 92.1251ZM44.03 87.1821C44.511 87.5541 45.475 88.0511 46.548 88.3191C48.179 88.7271 49.761 88.9341 51.253 88.9341C55.799 88.9341 59.449 87.0521 62.1 83.3401C62.653 82.5661 62.487 81.5831 62.339 81.0661C62.029 79.9831 61.259 78.9981 60.466 78.6691C60.036 78.4911 59.679 78.3551 59.351 78.3551C59.175 78.3551 58.639 78.3551 57.737 79.3641C57.1145 80.0641 56.5162 80.7852 55.943 81.5261C53.859 84.1721 52.904 85.0701 46.704 86.3471C45.191 86.6571 44.415 86.9731 44.03 87.1821ZM56.299 79.8221C55.9181 79.8215 55.5499 79.6847 55.2611 79.4364C54.9722 79.188 54.7817 78.8446 54.724 78.4681C54.6843 78.2032 54.6576 77.9366 54.644 77.6691C50.58 77.5931 46.659 75.8491 43.682 72.7431C39.918 68.8161 38.205 63.3751 38.983 57.8161C39.828 51.7791 39.512 46.4501 39.342 43.5871C39.295 42.7911 39.261 42.2161 39.263 41.8181C39.266 41.3131 39.276 39.9741 43.752 37.7051C45.344 36.8981 48.536 35.4901 52.023 35.1291C57.8 34.5321 61.608 37.1051 62.748 42.3751C65.825 56.6031 62.992 62.8961 60.923 67.4921C60.538 68.3481 60.174 69.1561 59.883 69.9391L59.626 70.6291C58.533 73.5601 57.588 76.0921 57.878 77.9831C57.9098 78.1902 57.9005 78.4016 57.8507 78.6051C57.8008 78.8086 57.7113 79.0003 57.5873 79.1692C57.4634 79.3381 57.3073 79.481 57.1281 79.5896C56.9489 79.6982 56.7501 79.7704 56.543 79.8021L56.299 79.8221ZM42.464 42.2601L42.526 43.3991C42.702 46.3731 43.03 51.9071 42.142 58.2591C41.501 62.8441 42.901 67.3191 45.985 70.5351C48.422 73.0771 51.629 74.4801 54.925 74.4801H54.993C55.362 72.9251 55.975 71.2831 56.635 69.5141L56.89 68.8281C57.219 67.9441 57.604 67.0881 58.012 66.1821C60.003 61.7581 62.482 56.2511 59.627 43.0501C59.062 40.4351 57.691 38.9221 55.438 38.4231C50.81 37.4011 43.913 40.8821 42.464 42.2601ZM52.094 41.5831C52.014 42.1471 53.127 43.6531 54.579 43.8541C56.028 44.0571 57.268 42.8791 57.347 42.3151C57.426 41.7511 56.314 41.1291 54.862 40.9271C53.411 40.7251 52.171 41.0191 52.094 41.5831ZM54.912 44.4091L54.505 44.3811C53.605 44.2561 52.695 43.6891 52.072 42.8631C51.853 42.5731 51.496 42.0111 51.567 41.5091C51.668 40.7731 52.566 40.3321 53.967 40.3321C54.28 40.3321 54.606 40.3551 54.934 40.4011C55.7 40.5071 56.411 40.7281 56.936 41.0211C57.846 41.5291 57.913 42.0961 57.872 42.3891C57.76 43.2021 56.467 44.4091 54.912 44.4091ZM52.623 41.6771C52.668 42.0251 53.53 43.1731 54.652 43.3281L54.913 43.3461C55.949 43.3461 56.723 42.5311 56.814 42.2641C56.718 42.0821 56.052 41.6301 54.789 41.4541C54.517 41.4151 54.2427 41.3954 53.968 41.3951C53.156 41.3951 52.725 41.5781 52.623 41.6771ZM96.228 40.4321C96.307 40.9961 95.195 42.5021 93.744 42.7041C92.294 42.9061 91.053 41.7291 90.973 41.1651C90.897 40.6011 92.009 39.9781 93.459 39.7771C94.909 39.5741 96.148 39.8691 96.228 40.4321ZM93.409 42.9921C92.013 42.9921 90.808 41.9061 90.709 41.2011C90.594 40.3551 91.987 39.7121 93.421 39.5131C93.737 39.4691 94.05 39.4471 94.351 39.4471C95.589 39.4471 96.409 39.8101 96.491 40.3961C96.544 40.7751 96.253 41.3601 95.752 41.8881C95.421 42.2351 94.726 42.8361 93.779 42.9671L93.409 42.9921ZM94.352 39.9791C94.076 39.9791 93.788 40.0001 93.496 40.0401C92.055 40.2411 91.195 40.8191 91.237 41.1291C91.285 41.4701 92.205 42.4611 93.41 42.4611L93.707 42.4401C94.494 42.3311 95.085 41.8171 95.367 41.5211C95.81 41.0561 95.986 40.6181 95.965 40.4691C95.937 40.2711 95.405 39.9791 94.352 39.9791ZM98.317 72.8221C98.0279 72.8223 97.7442 72.7438 97.4963 72.5951C97.2483 72.4465 97.0455 72.2332 96.9095 71.9781C96.7735 71.723 96.7094 71.4357 96.7241 71.147C96.7388 70.8583 96.8317 70.579 96.993 70.3391C100.391 65.2641 99.769 60.0891 99.168 55.0841C98.911 52.9521 98.647 50.7471 98.715 48.6311C98.785 46.4541 99.062 44.6581 99.329 42.9211C99.646 40.8631 99.946 38.9191 99.822 36.6111C99.8107 36.4019 99.8407 36.1925 99.9103 35.9949C99.9799 35.7973 100.088 35.6154 100.228 35.4595C100.368 35.3036 100.537 35.1768 100.726 35.0863C100.915 34.9958 101.12 34.9434 101.329 34.9321C101.538 34.9208 101.748 34.9508 101.945 35.0204C102.143 35.0901 102.325 35.1979 102.481 35.3379C102.636 35.4778 102.763 35.6471 102.854 35.836C102.944 36.025 102.997 36.2299 103.008 36.4391C103.15 39.0771 102.811 41.2771 102.483 43.4061C102.23 45.0491 101.968 46.7481 101.905 48.7331C101.844 50.6071 102.083 52.5971 102.336 54.7031C102.976 60.0251 103.701 66.0571 99.645 72.1141C99.4989 72.3322 99.3013 72.511 99.0696 72.6345C98.838 72.7579 98.5795 72.8224 98.317 72.8221Z"
    fill="white"
  />
</svg>

<svg xmlns="http://www.w3.org/2000/svg" width="128" height="128" fill="none"><path fill="#000" d="M93.81 92.112c.784-6.533.55-7.492 5.415-6.433l1.235.108c3.742.17 8.637-.602 11.513-1.938 6.191-2.873 9.861-7.668 3.758-6.409-13.924 2.873-14.881-1.842-14.881-1.842 14.703-21.815 20.849-49.508 15.543-56.287-14.47-18.489-39.517-9.746-39.936-9.52l-.134.025c-2.75-.571-5.83-.912-9.289-.968-6.3-.104-11.082 1.652-14.709 4.402 0 0-44.683-18.409-42.604 23.151.442 8.841 12.672 66.898 27.26 49.362 5.332-6.412 10.484-11.834 10.484-11.834 2.558 1.699 5.622 2.567 8.834 2.255l.25-.212c-.079.796-.045 1.575.098 2.497-3.757 4.199-2.653 4.936-10.166 6.482-7.602 1.566-3.136 4.355-.22 5.084 3.534.884 11.711 2.136 17.237-5.598l-.22.882c1.474 1.18 1.375 8.477 1.583 13.69.21 5.214.558 10.079 1.621 12.948s2.317 10.256 12.191 8.14c8.252-1.764 14.561-4.309 15.136-27.985"/><path fill="#000" d="M75.458 125.256c-4.367 0-7.211-1.689-8.938-3.32-2.607-2.46-3.641-5.629-4.259-7.522l-.267-.79c-1.244-3.358-1.666-8.193-1.916-14.419-.038-.935-.064-1.898-.093-2.919-.021-.747-.047-1.684-.085-2.664a18.8 18.8 0 0 1-4.962 1.568c-3.079.526-6.389.356-9.84-.507-2.435-.609-4.965-1.87-6.407-3.82-4.203 3.681-8.212 3.182-10.396 2.453-3.853-1.285-7.301-4.896-10.542-11.037-2.309-4.375-4.542-10.075-6.638-16.943-3.65-11.96-5.969-24.557-6.175-28.693C4.292 23.698 7.777 14.44 15.296 9.13 27.157.751 45.128 5.68 51.68 7.915c4.402-2.653 9.581-3.944 15.433-3.85 3.143.05 6.136.326 8.916.822 2.9-.912 8.628-2.22 15.185-2.139 12.081.144 22.092 4.852 28.949 13.615 4.894 6.252 2.474 19.381.597 26.651-2.642 10.226-7.271 21.102-12.957 30.57 1.544.011 3.781-.174 6.961-.83 6.274-1.296 8.109 2.068 8.607 3.574 1.995 6.042-6.677 10.608-9.382 11.864-3.466 1.61-9.117 2.59-13.745 2.377l-.202-.013-1.216-.107-.12 1.014-.116.991c-.311 11.999-2.025 19.598-5.552 24.619-3.697 5.264-8.835 6.739-13.361 7.709-1.544.33-2.947.474-4.219.474m-9.19-43.67c2.819 2.255 3.066 6.5 3.287 14.433.028.99.054 1.927.089 2.802.106 2.65.355 8.855 1.327 11.477.137.371.26.747.39 1.146 1.083 3.316 1.626 4.979 6.309 3.978 3.931-.843 5.952-1.599 7.534-3.851 2.299-3.274 3.585-9.86 3.821-19.575l4.783.116-4.75-.57.14-1.186c.455-3.91.783-6.734 3.396-8.602 2.097-1.498 4.486-1.353 6.389-1.01-2.091-1.58-2.669-3.433-2.823-4.193l-.399-1.965 1.121-1.663c6.457-9.58 11.781-21.354 14.609-32.304 2.906-11.25 2.02-17.226 1.134-18.356-11.729-14.987-32.068-8.799-34.192-8.097l-.359.194-1.8.335-.922-.19c-2.542-.529-5.366-.82-8.393-.87-4.756-.08-8.593 1.044-11.739 3.431l-2.183 1.655-2.533-1.043c-5.412-2.213-21.308-6.662-29.696-.72-4.656 3.297-6.777 9.76-6.305 19.206.156 3.12 2.275 14.926 5.771 26.377 4.831 15.825 9.221 21.082 11.054 21.693.32.108 1.15-.537 1.976-1.529a271 271 0 0 1 10.694-12.07l2.77-2.915 3.349 2.225c1.35.897 2.839 1.406 4.368 1.502l7.987-6.812-1.157 11.808c-.026.265-.039.626.065 1.296l.348 2.238-1.51 1.688-.174.196 4.388 2.025z"/><path fill="#336791" d="M115.731 77.44c-13.925 2.873-14.882-1.842-14.882-1.842 14.703-21.816 20.849-49.51 15.545-56.287C101.924.823 76.875 9.566 76.457 9.793l-.135.024c-2.75-.571-5.83-.911-9.29-.967-6.302-.103-11.08 1.652-14.708 4.402 0 0-44.684-18.408-42.606 23.15.442 8.843 12.672 66.9 27.26 49.364 5.332-6.412 10.483-11.834 10.483-11.834 2.56 1.699 5.622 2.567 8.833 2.255l.25-.212c-.078.796-.042 1.575.1 2.497-3.758 4.199-2.654 4.936-10.167 6.482-7.602 1.566-3.136 4.355-.22 5.084 3.534.884 11.712 2.136 17.237-5.598l-.22.882c1.472 1.18 2.506 7.672 2.333 13.557-.174 5.885-.29 9.926.871 13.082 1.16 3.156 2.316 10.256 12.192 8.14 8.252-1.768 12.528-6.351 13.124-13.995.422-5.435 1.377-4.631 1.438-9.49l.767-2.3c.884-7.367.14-9.743 5.225-8.638l1.235.108c3.742.17 8.639-.602 11.514-1.938 6.19-2.871 9.861-7.667 3.758-6.408"/><path fill="#fff" d="M75.957 122.307c-8.232 0-10.84-6.519-11.907-9.185-1.562-3.907-1.899-19.069-1.551-31.503a1.59 1.59 0 0 1 1.64-1.55 1.593 1.593 0 0 1 1.55 1.64c-.401 14.34.168 27.336 1.324 30.228 1.804 4.509 4.54 8.453 12.275 6.796 7.343-1.575 10.093-4.359 11.318-11.46.94-5.449 2.799-20.95 3.028-24.01a1.593 1.593 0 0 1 2.8-.921c.276.32.413.737.382 1.16-.239 3.184-2.089 18.656-3.065 24.314-1.446 8.387-5.185 12.191-13.794 14.037-1.463.313-2.792.453-4 .454m-44.636-31.84a6.7 6.7 0 0 1-2.116-.35c-5.347-1.785-10.44-10.493-15.138-25.886-3.576-11.717-5.842-23.947-6.041-27.922-.589-11.784 2.445-20.12 9.02-24.778 13.007-9.216 34.888-.44 35.813-.062a1.597 1.597 0 0 1-1.207 2.955c-.211-.086-21.193-8.492-32.768-.285-5.622 3.986-8.203 11.392-7.672 22.011.167 3.35 2.284 15.285 5.906 27.15 4.194 13.741 8.967 22.412 13.096 23.79.648.215 2.62.872 5.439-2.518A245 245 0 0 1 45.88 73.046a1.596 1.596 0 0 1 2.304 2.208c-.048.05-4.847 5.067-10.077 11.36-2.477 2.978-4.851 3.852-6.786 3.852M100.75 77.02a1.597 1.597 0 0 1-1.322-2.487c14.863-22.055 20.08-48.704 15.612-54.414-5.624-7.186-13.565-10.939-23.604-11.156-7.433-.16-13.341 1.738-14.307 2.07l-.243.098c-.971.305-1.716-.227-1.997-.849a1.6 1.6 0 0 1 .631-2.025c.046-.027.192-.089.429-.176l-.021.006.021-.007c1.641-.6 7.639-2.4 15.068-2.315 11.108.118 20.284 4.401 26.534 12.388 2.957 3.78 2.964 12.485.019 23.887-3.002 11.625-8.651 24.118-15.497 34.277-.306.457-.81.703-1.323.703m.76 10.21c-2.538 0-4.813-.358-6.175-1.174-1.4-.839-1.667-1.979-1.702-2.584-.382-6.71 3.32-7.878 5.208-8.41-.263-.399-.637-.867-1.024-1.35-1.101-1.376-2.609-3.26-3.771-6.078-.182-.44-.752-1.463-1.412-2.648-3.579-6.418-11.026-19.773-6.242-26.612 2.214-3.165 6.623-4.41 13.119-3.716C97.6 28.837 88.5 10.625 66.907 10.271c-6.494-.108-11.82 1.89-15.822 5.93-8.96 9.05-8.636 25.422-8.631 25.586a1.595 1.595 0 0 1-3.19.084c-.02-.727-.354-17.909 9.554-27.916C53.455 9.272 59.559 6.96 66.96 7.081c13.814.227 22.706 7.25 27.732 13.101 5.479 6.377 8.165 13.411 8.386 15.76.165 1.745-1.088 2.094-1.341 2.146l-.576.013c-6.375-1.02-10.465-.312-12.156 2.104-3.639 5.201 3.406 17.834 6.414 23.23.768 1.375 1.322 2.37 1.576 2.984.988 2.396 2.277 4.006 3.312 5.3.911 1.138 1.7 2.125 1.982 3.283.131.23 1.99 2.98 13.021.703 2.765-.57 4.423-.083 4.93 1.45.997 3.015-4.597 6.532-7.694 7.97-2.775 1.29-7.204 2.106-11.036 2.106m-4.696-4.02c.35.352 2.101.961 5.727.805 3.224-.138 6.624-.839 8.664-1.786 2.609-1.212 4.351-2.567 5.253-3.492l-.5.092c-7.053 1.456-12.042 1.262-14.828-.577a6 6 0 0 1-.54-.4c-.302.118-.581.196-.78.252-1.58.443-3.214.902-2.996 5.105m-45.562 8.914c-1.752 0-3.596-.239-5.479-.71-1.951-.488-5.24-1.957-5.19-4.37.057-2.707 3.994-3.519 5.476-3.824 5.354-1.103 5.703-1.545 7.376-3.67.488-.619 1.095-1.39 1.923-2.314 1.229-1.376 2.572-2.073 3.992-2.073.989 0 1.8.335 2.336.558 1.708.708 3.133 2.42 3.719 4.467.529 1.847.276 3.625-.71 5.006-3.237 4.533-7.886 6.93-13.443 6.93m-7.222-4.943c.481.372 1.445.87 2.518 1.137 1.631.408 3.213.615 4.705.615 4.546 0 8.196-1.882 10.847-5.594.553-.774.387-1.757.239-2.274-.31-1.083-1.08-2.068-1.873-2.397-.43-.178-.787-.314-1.115-.314-.176 0-.712 0-1.614 1.01q-.934 1.05-1.794 2.161c-2.084 2.646-3.039 3.544-9.239 4.821-1.513.31-2.289.626-2.674.835m12.269-7.36a1.596 1.596 0 0 1-1.575-1.354 8 8 0 0 1-.08-.799c-4.064-.076-7.985-1.82-10.962-4.926-3.764-3.927-5.477-9.368-4.699-14.927.845-6.037.529-11.366.359-14.229-.047-.796-.081-1.37-.079-1.769.003-.505.013-1.844 4.489-4.113 1.592-.807 4.784-2.215 8.271-2.576 5.777-.597 9.585 1.976 10.725 7.246 3.077 14.228.244 20.521-1.825 25.117-.385.856-.749 1.664-1.04 2.447l-.257.69c-1.093 2.931-2.038 5.463-1.748 7.354a1.597 1.597 0 0 1-1.335 1.82zM42.464 42.26l.062 1.14c.176 2.973.504 8.507-.384 14.86-.641 4.584.759 9.06 3.843 12.275 2.437 2.542 5.644 3.945 8.94 3.945h.068c.369-1.555.982-3.197 1.642-4.966l.255-.686c.329-.884.714-1.74 1.122-2.646 1.991-4.424 4.47-9.93 1.615-23.132-.565-2.615-1.936-4.128-4.189-4.627-4.628-1.022-11.525 2.46-12.974 3.837m9.63-.677c-.08.564 1.033 2.07 2.485 2.271 1.449.203 2.689-.975 2.768-1.539s-1.033-1.186-2.485-1.388-2.691.092-2.768.656m2.818 2.826-.407-.028c-.9-.125-1.81-.692-2.433-1.518-.219-.29-.576-.852-.505-1.354.101-.736.999-1.177 2.4-1.177.313 0 .639.023.967.07.766.105 1.477.326 2.002.62.91.507.977 1.074.936 1.367-.112.813-1.405 2.02-2.96 2.02m-2.289-2.732c.045.348.907 1.496 2.029 1.651l.261.018c1.036 0 1.81-.815 1.901-1.082-.096-.182-.762-.634-2.025-.81a6 6 0 0 0-.821-.059c-.812 0-1.243.183-1.345.282m43.605-1.245c.079.564-1.033 2.07-2.484 2.272-1.45.202-2.691-.975-2.771-1.539-.076-.564 1.036-1.187 2.486-1.388 1.45-.203 2.689.092 2.769.655m-2.819 2.56c-1.396 0-2.601-1.086-2.7-1.79-.115-.847 1.278-1.49 2.712-1.689.316-.044.629-.066.93-.066 1.238 0 2.058.363 2.14.95.053.378-.238.963-.739 1.491-.331.347-1.026.948-1.973 1.08zm.943-3.013q-.416 0-.856.061c-1.441.201-2.301.78-2.259 1.09.048.34.968 1.331 2.173 1.331l.297-.02c.787-.11 1.378-.624 1.66-.92.443-.465.619-.903.598-1.052-.028-.198-.56-.49-1.613-.49m3.965 32.843a1.593 1.593 0 0 1-1.324-2.483c3.398-5.075 2.776-10.25 2.175-15.255-.257-2.132-.521-4.337-.453-6.453.07-2.177.347-3.973.614-5.71.317-2.058.617-4.002.493-6.31a1.596 1.596 0 1 1 3.186-.172c.142 2.638-.197 4.838-.525 6.967-.253 1.643-.515 3.342-.578 5.327-.061 1.874.178 3.864.431 5.97.64 5.322 1.365 11.354-2.691 17.411a1.6 1.6 0 0 1-1.328.708"/></svg>
